themes/10up-theme/dist/images/icon-trash.svg

<svg width="21" height="22" viewBox="0 0 21 22" fill="none" xmlns="http://www.w3.org/2000/svg">
<path d="M3.75393 19.4474C3.75206 19.694 3.84808 19.9314 4.02095 20.1073C4.19382 20.2833 4.42942 20.3835 4.67607 20.386H15.3464C15.5931 20.3835 15.8287 20.2833 16.0016 20.1073C16.1744 19.9314 16.2705 19.694 16.2686 19.4474V6.93274H3.75393V19.4474ZM5.0054 8.1842H15.0171V19.1345H5.0054V8.1842Z" fill="#F6652B"/>
<path d="M6.57031 9.43567H7.82178V17.2573H6.57031V9.43567Z" fill="#F6652B"/>
<path d="M9.38574 9.43567H10.6372V17.2573H9.38574V9.43567Z" fill="#F6652B"/>
<path d="M12.2021 9.43567H13.4536V17.2573H12.2021V9.43567Z" fill="#F6652B"/>
<path d="M12.8275 4.42981V2.55261C12.8275 2.02629 12.4565 1.61401 11.9828 1.61401H8.04066C7.56698 1.61401 7.19592 2.02629 7.19592 2.55261V4.42981H2.50293V5.68127H17.5205V4.42981H12.8275ZM8.44739 2.86548H11.576V4.42981H8.44739V2.86548Z" fill="#F6652B"/>
</svg>

<svg xmlns="http://www.w3.org/2000/svg" width="21" height="22" fill="none" viewBox="0 0 21 22"><path fill="#F6652B" d="M3.754 19.447a.93.93 0 0 0 .922.939h10.67a.93.93 0 0 0 .923-.939V6.933H3.754zM5.005 8.184h10.012v10.95H5.005z"/><path fill="#F6652B" d="M6.57 9.436h1.252v7.821H6.57zM9.386 9.436h1.251v7.821H9.386zM12.202 9.436h1.252v7.821h-1.252zM12.828 4.43V2.553c0-.527-.371-.939-.845-.939H8.04c-.474 0-.845.412-.845.939V4.43H2.503V5.68H17.52V4.43zm-4.38-1.565h3.128V4.43H8.447z"/></svg>
